X: 1
T: the Mason's Apron
O: Trad
N: In most old collections.
R: reel
M: C|
L: 1/8
Z: 1996 by John Chambers <jc:trillian.mit.edu>
K: A
   ed \
| "A"c2A2 ABAF | EFAB dcBA |1 "Bm"d2B2 BcBA | Bcde "E7"gf \
                          :|2 "D"Bcde fefa | "E7"edcB "A"A2 |]
|: ed \
| "A"cAeA fAeA | cAeA fedc |1 "Bm"dBfB gBfB | dBfB "E7"gf \
                          :|2 "D"Bcde fefa | "E7"edcB "A"A2 |]
